X:1
T:Or suis je prins
T:Or suis je prins
T:Nicolas Gombert
C:Nicolas Gombert
%%score [ 1 2 [ 3 4 ] ]
L:1/8
Q:1/4=96
M:2/2
K:C
V:1 treble nm="Superius" snm="S"
V:2 treble nm="Alto" snm="A"
V:3 treble-8 nm="Tenor 1" snm="T 1"
V:4 treble-8 nm="Tenor 2" snm="T 2"
V:1
 z4 c4 | B2 A2 G4 | z2 c4 B2 | A2 G2 A4 | G4 z2 c2- | c2 B2 A4 | G4 z2 g2 | gf f2 e4 | %8
w: Or|suis je prins,|or suis|je _ _|prins, or|_ suis je|prins, or|suis je prins, or|
 d2 c2 B2 A2 | G3 A BG c2- | cB B2 c4 | z4 G4 | AB cA Bc dB | c2 B2 A4 | G2 D2 EFGE | FG AF G4 | %16
w: suis je prins, or|suis _ _ _ _|_ _ je prins|en|mer- * * * * * * *|veil- leulx ar-|roy, en ar- * * *|* * * * roy,|
 z4 G2 AB | cA Bc dB cB | A2 G4 F2 | G4 z4 | z8 | z2 G2 A2 B2 | c4 z2 G2 | A2 B2 c2 d2 | %24
w: en mer- *||veil leulx ar-|roy,||com- me l'oi-|seau qui|pour a- voir pas-|
 c2 e2 dc BA | c4 z4 | z2 d2 cB Ac | BA G2 c2 d2- | dc c3 B B2 | c2 z g e2 g2 | c4 d2 ed | %31
w: tu- * * * * *|re,|qui pour _ _ _|_ _ _ a- voir|_ _ pas- * tu-|re, au tre- bu-|chet se met, _|
 cB A2 G4- | G4 g2 eg | c2 d2 ed cB | A4 G2 z2 | z4 z2 d2 | e2 c2 g2 z G | FGAB c2 c2 | %38
w: _ _ _ _|* au tre- *|bu- chet se _ _ _|_ met,|au|tre- bu- chet se|met en des- ar- roy, se|
 B2 B2 A2 A2 | G8 | z4 z2 d2 | e2 c2 g2 G2 | FG AB c3 B/A/ | B2 G3 F F2 | G2 G2 FG AB | %45
w: met en des- ar-|roy,|au|tre- bu- chet se|met _ _ _ en _ _|_ des- * ar-|roy, se met _ _ _|
 c3 B/A/ B2 G2- |"^#""^#" GF F2 G4- | G8 |] %48
w: en _ _ _ des-|* * ar- roy.|_|
V:2
 G4 F2 E2 | D4 z2 G2- | G2 F2 E2 D2- | D2 G4 F2 | E4 D2 z2 | G4 F2 E2 | D2 D4 C2 | B,2 A,2 C4 | %8
w: suis je prins,|or suis|_ je prins, or|_ suis je|prins, or|suis je prins,|or suis je|_ prins or|
 z2 G4 F2 | E4 D2 C2 | G2 G2 E4 | z8 | z4 D4 | EF GE F2 E2 | D2 B,2 A,2 G,2 | D2 D2 B,4 | %16
w: suis je|prins, _ _|_ _ en||mer-|veil- * leulx * ar- roy,|en- mer- veil- leulx|ar- roy, en|
 z2 C2 DEFD | EFGG AF G2 | F2 E2 D2 D2- | D2 E2 F2 GG | A2 B2 c4 | z8 | z2 C2 D2 E2 | F2 G2 FEDF | %24
w: mer- veil- * * *|* * * * * * leulx|ar- roy, com- me-|* l'oi- seau, com- me|l'oi- seau, com-||me l'oi- seau|qui pour a- voir pas- tu-|
 ED C2 z4 | G2 FE DCB,G,/D/ | EF G3 F F2 | G2 B2 A4 | G4 z2 G2 | E2 G2 C2 z G | AG FE D2 CG | %31
w: re, * qui|pour a- _ voir * * * *|* * pas- tu- re,||au tre-|bu- chet se met|en des- ar- * roy, se met|
 AG FE DCB,A, | B, C2 B, C z z G | AG F2 E2 G2- | GF F2 G2 E2 | D2 C4 B,2 | C2 z G, B,2 G,2 | %37
w: en _ des- _ ar- * * *|roy, * * au tre-|bu- * chet se met|_ _ en des- ar-|roy, * *|au tre- bu- chet|
 D2 D2 CDEF | GD G3 F F2 | G2 E2 D4 | z8 | z2 A,2 B,2 G,2 | D4 z2 A,2 | G,A,B,C D3 C | %44
w: se met en _ _ _|_ des- ar- * *|* roy, au||tre- bu- chet|se met|en _ _ _ _ des-|
 B,2 A,G, A,4 | z2 A,2 G,A,B,C | D2 D2 E2 E2 | D8 |] %48
w: ar- roy, * se|met en _ _ _|_ des- ar- roy.|au|
V:3
 z4 z2 g2- | g2 f2 e4 | d2 z2 g4 | f2 e2 d4 | z2 g4 f2 | e2 d4 c2- | c2 B2 A2 G2 | z4 g4 | %8
w: suis|_ je prins,|or suis|je prins, or|suis je|prins, or suis|_ je prins, or|suis|
 f2 e2 d4 | z2 g4 f2 | e2 d2 z2 c2 | defd ef g2- | gf f2 g4 | z2 G2 AB cA | Bc dB c2 B2 | %15
w: je prins, or|suis je|prins, en mer-|veil- * * * leulx * ar-|_ _ roy, en|mer- veil- * * *|leulx * * * ar- roy,|
 A4 z2 G2 | AB cA B2 c2- | c2 de fded | c2 B2 A4 | G4 c2 d2 | e2 f2 g2 fe | dfed ef g2- | %22
w: en mer-|veil- * * * leulx- ar-|_ _ _ _ _ _ _|* * roy,|com- me l'oi-|seau qui pour a- _|voir * * * pas- _ _|
 gf f2 g4 | d4 z4 | g4 fedf | ed c2 z2 d2 | c2 B2 A2 c2 | d2 d2 f3 d | e4 d4 | c8 | z8 | %31
w: _ _ tu- re,|qui|pour a- voir pas- tu-|re, * com- me|l'oi- seau qui pour|a- voir pas- tu-|re, *|au||
 z2 d2 B2 d2 | G2 d2 ed cB | A c2 B c4 | z2 d2 ed cB | A2 G4 F2 | G8 | z4 A4 | B2 G2 d4 | %39
w: tre- bu- chet|se met, se _ _ _|_ _ _ _|met en _ _ _|des- ar- roy,|au|tre-|bu- chet, au|
 z2 G2 B2 G2 | dd cd ef g2- | g2 f2 e d2 c | A2 d2 cd ef | g2 G2 z2 A2 | GA Bc d2 d2 | cdef g2 G2 | %46
w: tre- bu- chet|se met en _ _ _ _|_ des- ar- * roy,|en des- ar- * * *|roy, se met,-|en _ _ _ _ des-|ar- * * * * roy,|
 A2 A2 c2 c2 | B8 |] %48
w: en des- ar- roy.|Or|
V:4
 z8 | z4 c4 | B2 A2 G4 | z8 | c4 B2 A2 | G4 z4 | G4 F2 E2 | D4 C4 | z8 | c4 B2 A2 | G2 G2 AB cA | %11
w: |suis|je prins, or||suis je prins,|or|suis je _|prins, or||suis je prins|en mer- veil- * * *|
 Bc dB c2 B2 | A4 G4 | z8 | z8 | D4 EFGE | F2 A2 G2 F2 | A2 G2 D2 C2 | F2 G2 D4 | z2 G2 A2 B2 | %20
w: * * * * leulx ar-|roy, en|||mer veil- _ _ _|_ leulx ar- _|_ _ _ _|* roy, com-|me l'oi- seau|
 c2 d2 cB Ac | BAGB A2 G2 | A4 G4 | z2 G2 A2 B2 | c4 z2 d2 | cB Ac BA GB | A2 G2 A4 | G2 G2 FEDF | %28
w: qui pour a- _ _ _|voir * * * pas- tu-|re, com-|me l'oi- seau|qui pour|a- _ _ _ voir * * *|pas- tu- re,|pas- tu- re, * * *|
 E2 C2 G4 | C8 | z8 | z4 G4 | E2 G2 CGAG | FE D2 C4 | z4 G2 AG | F2 E2 D4 | C4 z4 | z8 | z4 D4 | %39
w: |au||tre-|bu chet se met en des-|ar- * roy, se|met en des-|ar- * roy,|au||tre-|
 E2 C2 G2 G2 | FG AB c2 B2 | A4 G2 E2 | DEFG A3 G/F/ | E4 D4 | E4 DEFG | A3 G/F/ E4 | D2 D2 CD EF | %47
w: bu- chet se met|en _ _ _ _ des-|ar- * *|* * * * roy, * *|se met|en des- _ _ _|ar- * * roy,|en- des- ar- * roy. *|
 G8 |] %48
w: A|

